flaticon/emoticons/dead-4.svg

<svg xmlns="http://www.w3.org/2000/svg" width="32" height="32" viewBox="0 0 24 24">
    <path d="M 12 0 C 5.382812 0 0 5.382812 0 12 C 0 18.617188 5.382812 24 12 24 C 18.617188 24 24 18.617188 24 12 C 24 5.382812 18.617188 0 12 0 Z M 12 22.910156 C 5.984375 22.910156 1.089844 18.015625 1.089844 12 C 1.089844 5.984375 5.984375 1.089844 12 1.089844 C 18.015625 1.089844 22.910156 5.984375 22.910156 12 C 22.910156 18.015625 18.015625 22.910156 12 22.910156 Z M 12 22.910156"/>
    <path d="M5.292969 11.015625L7.222656 9.085938 9.152344 11.015625C9.257812 11.121094 9.398438 11.171875 9.539062 11.171875 9.675781 11.171875 9.816406 11.121094 9.921875 11.015625 10.136719 10.800781 10.136719 10.457031 9.921875 10.242188L7.996094 8.3125 9.921875 6.386719C10.136719 6.171875 10.136719 5.828125 9.921875 5.613281 9.710938 5.402344 9.367188 5.402344 9.152344 5.613281L7.222656 7.542969 5.292969 5.613281C5.082031 5.402344 4.738281 5.402344 4.523438 5.613281 4.308594 5.828125 4.308594 6.171875 4.523438 6.386719L6.453125 8.3125 4.523438 10.242188C4.308594 10.457031 4.308594 10.800781 4.523438 11.015625 4.628906 11.121094 4.769531 11.171875 4.910156 11.171875 5.046875 11.171875 5.1875 11.121094 5.292969 11.015625zM19.476562 5.613281C19.261719 5.402344 18.917969 5.402344 18.707031 5.613281L16.777344 7.542969 14.847656 5.613281C14.632812 5.402344 14.289062 5.402344 14.078125 5.613281 13.863281 5.828125 13.863281 6.171875 14.078125 6.386719L16.003906 8.3125 14.078125 10.242188C13.863281 10.457031 13.863281 10.800781 14.078125 11.015625 14.183594 11.121094 14.324219 11.175781 14.460938 11.175781 14.601562 11.175781 14.742188 11.121094 14.847656 11.015625L16.777344 9.085938 18.707031 11.015625C18.8125 11.121094 18.953125 11.175781 19.089844 11.175781 19.230469 11.175781 19.371094 11.121094 19.476562 11.015625 19.691406 10.800781 19.691406 10.457031 19.476562 10.242188L17.546875 8.3125 19.476562 6.386719C19.691406 6.171875 19.691406 5.828125 19.476562 5.613281zM17.453125 14.183594L5.453125 14.183594C5.152344 14.183594 4.910156 14.425781 4.910156 14.726562 4.910156 15.027344 5.152344 15.273438 5.453125 15.273438L11.453125 15.273438 11.453125 18.980469C11.453125 20.484375 12.679688 21.710938 14.183594 21.710938L14.726562 21.710938C16.230469 21.710938 17.453125 20.484375 17.453125 18.980469L17.453125 15.273438C17.757812 15.273438 18 15.027344 18 14.726562 18 14.425781 17.757812 14.183594 17.453125 14.183594zM16.363281 18.980469C16.363281 19.882812 15.628906 20.617188 14.726562 20.617188L14.183594 20.617188C13.28125 20.617188 12.546875 19.882812 12.546875 18.980469L12.546875 15.273438 13.21875 15.273438C13.414062 15.277344 13.625 15.277344 13.839844 15.277344 13.898438 15.671875 13.925781 16.480469 13.925781 17.699219L13.925781 17.789062C13.925781 18.089844 14.171875 18.332031 14.472656 18.332031 14.773438 18.332031 15.019531 18.089844 15.019531 17.789062L15.019531 17.699219C15.019531 17.207031 15.019531 16.464844 14.980469 15.824219 14.972656 15.648438 14.960938 15.460938 14.941406 15.277344 15.464844 15.277344 15.96875 15.277344 16.363281 15.277344zM16.363281 18.980469"/>
</svg>

<svg xmlns="http://www.w3.org/2000/svg" width="32" height="32" viewBox="0 0 24 24">
    <path d="M12 0C5.383 0 0 5.383 0 12s5.383 12 12 12 12-5.383 12-12S18.617 0 12 0zm0 22.91C5.984 22.91 1.09 18.016 1.09 12S5.984 1.09 12 1.09 22.91 5.984 22.91 12 18.016 22.91 12 22.91zm0 0"/>
    <path d="M5.293 11.016l1.93-1.93 1.93 1.93a.543.543 0 0 0 .386.156.545.545 0 0 0 .383-.93l-1.926-1.93 1.926-1.925a.545.545 0 1 0-.77-.774l-1.93 1.93-1.929-1.93a.545.545 0 1 0-.77.773l1.93 1.926-1.93 1.93a.545.545 0 1 0 .77.774zm0 0M19.477 5.613a.547.547 0 0 0-.77 0l-1.93 1.93-1.93-1.93a.545.545 0 1 0-.77.773l1.927 1.926-1.926 1.93a.545.545 0 1 0 .77.774l1.93-1.93 1.929 1.93a.545.545 0 1 0 .77-.774l-1.93-1.93 1.93-1.925a.545.545 0 0 0 0-.774zm0 0M17.453 14.184h-12a.545.545 0 0 0 0 1.09h6v3.706a2.736 2.736 0 0 0 2.73 2.73h.544a2.732 2.732 0 0 0 2.726-2.73v-3.707a.546.546 0 1 0 0-1.09zm-1.09 4.796c0 .903-.734 1.637-1.636 1.637h-.543a1.639 1.639 0 0 1-1.637-1.637v-3.707h.672c.195.004.406.004.62.004.06.395.087 1.203.087 2.422v.09c0 .3.246.543.547.543.3 0 .547-.242.547-.543v-.09c0-.492 0-1.234-.04-1.875a9.001 9.001 0 0 0-.039-.547h1.422zm0 0"/>
</svg>
